**kern	**kern	**dynam
*part1	*part1	*part1
*staff2	*staff1	*
*I"Piano	*	*
*clefF4	*clefG2	*
*k[f#]	*k[f#]	*
=1	=1	=1
*	*^	*
!	!	!	!LO:DY:a
4EE	(8eeL	4.g	<
.	8b	.	.
8E 8G 8B	8eeJ)	.	.
=	=	=	=
4BBB	(8dd#XL 8ff#	4.f#	.
.	8b	.	.
8D#X 8F# 8B	[8dd#J	.	.
=	=	=	=
4BBB	8dd#L] 8ff#	4.f#	.
.	8b	.	.
8D#X 8F# 8B	8dd#XJ)	.	[
=	=	=	=
!	!	!	!LO:DY:a
4BBB	(8ddnL 8ff#	4f#	ff
.	8cc#X 8ee	.	>
8Dn 8F# 8B	8bJ 8dd	8r	.
*	*v	*v	*
=	=	=
4DD	8aL 8ccn	.
.	8g 8b	.
8D 8F# 8A	8dJ) 8a	]
=	=	=
4GG	(8BL 8g	<
.	8d 8a	.
8D 8G 8B	8gJ 8b	.
=	=	=
4GG	8bL 8dd	[ mf
.	8a 8cc	.
8D 8G 8B	8gJ) 8b	.
=	=	=
4CC	(8eL 8cc	.
.	8g 8dd	.
8E 8G 8c	8ccJ 8ee	.
=	=	=
4CC	8eeL 8gg	.
.	8dd 8ff#	.
8E 8G 8c	8ccJ) 8ee	.
=	=	=
*-	*-	*-
!!!system-decoration: {(s1,s2)}
